X:9287
T:Bundle and Go (jig) % nf<bb
B:"Northern Fiddler" 085.1 (JD)
Z:Andrew Robinson (ABCs: B.Black) Edited. Peter Dunk
L:1/8
M:6/8
R:jig
Q:320
K:Am
a|gee edB|g^fg B2a|gee edB|dBG A2a|
gee edB|g^fg a2b|age edB|1 dBG A2:|2 dBG AB^c||
d2B d2B|g^fg age|d2B d2B|dBG AB^c|
d2B d2B|g^fg a2b|1 age edB|dBG AB^c:|\
[2 age edB|dBG A2a||

